public/Group 10.svg

<svg width="181" height="226" viewBox="0 0 181 226" fill="none" xmlns="http://www.w3.org/2000/svg">
<path d="M88.8502 0.00203171C92.7035 -0.301199 170.894 33.4331 180.071 37.6345C180.884 49.6987 180.227 67.4013 180.312 80.1639C180.39 92.2981 180.927 112.953 179.711 124.672C179.067 130.966 177.71 137.166 175.66 143.151C162.77 181.327 125.517 208.077 90.9006 225.33C88.3907 224.872 84.0778 222.629 81.7588 221.38C45.4103 201.82 6.67197 170.581 0.909661 127.023C-0.518543 116.229 0.160259 101.479 0.16733 90.3493C0.0824858 72.6983 0.188506 55.0466 0.485459 37.3977C29.6788 24.6747 59.4731 12.3645 88.8502 0.00203171ZM26.8931 158.605C48.0545 158.402 69.2231 158.341 90.3845 158.421L153.515 158.412C166.122 134.764 166.942 127.033 166.751 100.574C166.631 84.2635 165.867 63.8438 166.708 47.7189C142.493 38.0098 114.388 26.2771 90.4835 15.6025L13.7494 47.7061C14.8241 64.4644 14.0534 84.3356 14.018 101.223C13.9686 125.988 13.9261 136.322 26.8931 158.605ZM58.3984 190.735C63.1426 194.628 68.4241 198.055 73.5218 201.496C84.5232 201.636 96.571 201.9 107.495 201.494L115.336 195.96L123.29 190.797L58.3984 190.735ZM126.379 169.299L35.4553 169.439L44.5123 179.623L56.2702 179.621C82.6425 179.616 109.899 179.971 136.2 179.576C139.099 176.405 142.698 172.668 145.392 169.421L126.379 169.299Z" fill="#F57824"/>
<path d="M85.9231 46.8057L94.86 46.8269L94.7822 60.3175L103.154 52.3748C104.808 53.7135 107.587 57.1134 109.085 58.8416C105.225 63.002 99.2719 68.1796 94.9873 72.1244C94.7681 78.3671 94.8317 84.9159 94.8035 91.1841C100.46 88.0401 106.074 84.8262 111.652 81.5422C113.165 75.8296 113.434 68.9097 115.576 63.7096C117.789 62.1227 121.593 62.4924 123.431 64.7868C124.067 67.6961 122.604 72.5845 121.89 75.6783C125.482 73.5402 129.285 71.5314 132.969 69.5325L137.459 76.9683L126.231 83.5496C129.681 85.1669 133.125 86.8103 136.547 88.4784C135.656 90.9636 134.546 93.6262 133.57 96.103L115.668 89.6079C110.323 92.1673 103.938 96.0365 98.6992 99.0293C104.207 101.692 110.365 105.437 115.739 108.527C121.692 106.366 127.2 104.378 133.273 102.536C134.482 104.642 135.698 107.558 136.723 109.818L126.726 114.426L137.303 120.78L133.506 128.687L121.918 122.372C122.71 125.807 124.421 130.605 122.972 133.525C121.204 135.437 118.468 135.377 115.809 135.681C114.296 128.866 113.059 123.314 112.154 116.385L94.7822 106.42L94.7257 125.543C99.6608 129.944 104.582 133.724 109.17 138.572C107.671 140.706 105.416 143.001 103.613 144.949L94.9378 137.54C94.966 140.284 95.3903 144.947 93.8843 146.736C91.4592 146.848 88.6169 147.329 86.7221 145.969C85.4777 143.972 86.008 139.977 86.1069 137.442L77.2479 144.785L71.8249 138.681C76.1308 133.814 81.179 129.798 86.1494 125.613C85.7817 120.802 86.0646 111.477 86.0858 106.385C80.4508 109.56 74.8722 112.832 69.3503 116.2C68.41 121.639 67.307 129.549 65.4758 134.548C62.2447 136.627 59.6216 135.794 57.4863 132.816C56.8712 129.876 58.5116 125.305 59.3741 122.201C55.7612 123.981 51.3635 126.666 47.793 128.715C46.2587 126.198 45.085 123.368 43.876 120.671L54.736 114.523C50.9746 113.047 46.6334 112.248 45.184 108.357C45.7072 106.189 45.9546 105.977 47.5667 104.448C51.9644 102.638 59.9751 106.731 65.2707 108.431C70.7432 105.277 76.2298 102.156 81.7305 99.0667C76.7388 95.7877 70.8351 92.5321 65.6243 89.5061C59.6286 91.4209 53.4775 93.7174 47.5314 95.8372C46.4213 93.4672 45.3466 90.7148 44.3285 88.2734C47.5384 86.7325 51.3564 85.1669 54.6582 83.7122L43.9255 77.0722C45.085 74.5382 46.5132 71.865 47.7859 69.3635C51.4624 71.1666 55.6127 73.5586 59.2539 75.5405C58.2499 71.2939 55.6481 65.3515 59.657 62.6578C62.273 62.5871 62.6972 62.6889 65.2213 63.4028C66.9111 66.3644 68.7352 77.9374 69.4635 81.8928C75.0278 84.5986 80.0831 88.1681 86.1848 91.0322C85.8737 84.7619 85.8807 78.2102 85.7959 71.9131C82.3668 68.3711 75.7702 62.7454 71.7472 58.9073L76.7742 52.7876C79.7154 54.6437 83.2859 57.7283 86.0575 60.0001C86.114 55.7096 85.9726 51.1216 85.9231 46.8057Z" fill="#F57824"/>
</svg>

<svg xmlns="http://www.w3.org/2000/svg" width="181" height="226" fill="none" viewBox="0 0 181 226"><path fill="#f57824" d="M88.85 0c3.85-.3 82.04 33.43 91.22 37.63.81 12.07.16 29.77.24 42.53.08 12.14.62 32.8-.6 44.51-.64 6.3-2 12.5-4.05 18.48-12.89 38.18-50.14 64.93-84.76 82.18-2.5-.46-6.82-2.7-9.14-3.95C45.4 201.82 6.67 170.58.9 127.02c-1.43-10.8-.75-25.54-.74-36.67Q.04 63.87.49 37.4C29.68 24.67 59.47 12.36 88.85 0M26.89 158.6q31.74-.3 63.5-.18h63.12c12.61-23.66 13.43-31.39 13.24-57.85-.12-16.3-.88-36.73-.04-52.85A2258 2258 0 0 1 90.48 15.6L13.75 47.7c1.07 16.76.3 36.64.27 53.52-.05 24.77-.1 35.1 12.87 57.38m31.5 32.14c4.75 3.89 10.03 7.31 15.13 10.76 11 .14 23.05.4 33.98 0l7.84-5.54 7.95-5.16zm67.99-21.44-90.92.14 9.05 10.18h11.76c26.37 0 53.63.35 79.93-.04 2.9-3.18 6.5-6.91 9.2-10.16z"/><path fill="#f57824" d="m85.92 46.8 8.94.03-.08 13.49 8.37-7.95c1.66 1.34 4.44 4.74 5.93 6.47-3.86 4.16-9.8 9.34-14.1 13.28-.21 6.25-.15 12.8-.18 19.06a783 783 0 0 0 16.85-9.64c1.52-5.71 1.78-12.63 3.93-17.83 2.2-1.59 6.01-1.22 7.85 1.08.64 2.9-.83 7.8-1.54 10.89 3.6-2.14 7.4-4.15 11.08-6.15l4.49 7.44-11.23 6.58q5.18 2.43 10.32 4.93c-.9 2.48-2 5.15-2.98 7.62l-17.9-6.5c-5.35 2.57-11.73 6.44-16.97 9.43 5.5 2.66 11.66 6.4 17.04 9.5a336 336 0 0 1 17.53-6c1.21 2.11 2.43 5.03 3.45 7.29l-10 4.6 10.58 6.36-3.8 7.9-11.58-6.3c.79 3.43 2.5 8.22 1.05 11.15-1.77 1.9-4.5 1.85-7.16 2.15-1.51-6.81-2.75-12.37-3.66-19.3l-17.37-9.96-.05 19.12c4.93 4.4 9.85 8.18 14.44 13.03-1.5 2.14-3.75 4.43-5.56 6.38l-8.67-7.41c.03 2.74.45 7.4-1.06 9.2-2.42.1-5.26.59-7.16-.77-1.24-2-.71-6-.61-8.53l-8.86 7.34-5.43-6.1c4.31-4.87 9.36-8.88 14.33-13.07-.37-4.8-.09-14.13-.06-19.22a561 561 0 0 0-16.74 9.81c-.94 5.44-2.04 13.35-3.87 18.35-3.24 2.08-5.86 1.24-8-1.73-.6-2.94 1.03-7.51 1.9-10.62-3.62 1.78-8.02 4.47-11.59 6.52-1.53-2.52-2.7-5.35-3.91-8.05l10.86-6.15c-3.77-1.47-8.1-2.27-9.56-6.16.53-2.17.77-2.38 2.39-3.91 4.4-1.81 12.4 2.28 17.7 3.98a1703 1703 0 0 1 16.46-9.36c-5-3.28-10.9-6.54-16.1-9.56-6 1.91-12.15 4.2-18.1 6.33-1.1-2.37-2.18-5.13-3.2-7.57 3.2-1.54 7.03-3.1 10.33-4.56l-10.73-6.64c1.16-2.53 2.58-5.2 3.86-7.7 3.67 1.8 7.82 4.19 11.46 6.17-1-4.25-3.6-10.19.4-12.88 2.62-.07 3.05.03 5.57.74 1.7 2.96 3.52 14.54 4.24 18.5 5.57 2.7 10.62 6.27 16.72 9.13-.3-6.27-.3-12.82-.38-19.12-3.43-3.54-10.03-9.16-14.05-13l5.02-6.12c2.95 1.85 6.52 4.94 9.29 7.21.05-4.29-.09-8.88-.14-13.2"/></svg>
